priv/static/images/frameworks/spring.svg

<svg
  width="129"
  height="130"
  viewBox="0 0 129 130"
  fill="none"
  xmlns="http://www.w3.org/2000/svg"
>
  <path
    d="M116.452 7.643C114.659 11.9437 112.364 16.0173 109.615 19.779C97.569 7.7399 81.2358 0.976068 64.205 0.973999C28.984 0.973999 5.95073e-08 29.982 5.95073e-08 65.242C-0.000374473 73.9491 1.7672 82.5655 5.19561 90.5692C8.62401 98.5729 13.6418 105.797 19.945 111.804L22.313 113.904C33.8859 123.661 48.5336 129.017 63.671 129.026C97.158 129.026 125.308 102.786 127.692 69.343C129.443 52.972 124.641 32.266 116.452 7.643ZM29.067 112.17C28.5515 112.805 27.9008 113.317 27.1623 113.669C26.4237 114.021 25.616 114.204 24.798 114.204C21.78 114.204 19.311 111.72 19.311 108.702C19.311 105.685 21.796 103.201 24.798 103.201C26.048 103.201 27.283 103.634 28.25 104.435C30.601 106.335 30.968 109.819 29.067 112.17ZM116.186 92.932C100.343 114.054 66.506 106.935 44.81 107.952C44.81 107.952 40.958 108.186 37.089 108.819C37.089 108.819 38.539 108.202 40.424 107.485C55.65 102.184 62.854 101.15 72.109 96.399C89.536 87.53 106.763 68.125 110.349 47.936C103.712 67.358 83.599 84.046 65.272 90.831C52.715 95.466 30.034 99.967 30.034 99.967L29.117 99.483C13.675 91.965 13.207 58.506 41.274 47.703C53.565 42.968 65.322 45.569 78.597 42.401C92.772 39.034 109.165 28.397 115.835 14.527C123.306 36.717 132.295 71.459 116.185 92.932H116.186Z"
    fill="#77BC1F"
  />
</svg>

<svg xmlns="http://www.w3.org/2000/svg" width="129" height="130" fill="none"><path fill="#77BC1F" d="M116.452 7.643a59 59 0 0 1-6.837 12.136A64.25 64.25 0 0 0 64.205.974C28.984.974 0 29.982 0 65.242a64.32 64.32 0 0 0 19.945 46.562l2.368 2.1a64.22 64.22 0 0 0 41.358 15.122c33.487 0 61.637-26.24 64.021-59.683 1.751-16.371-3.051-37.077-11.24-61.7M29.067 112.17a5.5 5.5 0 0 1-4.269 2.034c-3.018 0-5.487-2.484-5.487-5.502s2.485-5.501 5.487-5.501c1.25 0 2.485.433 3.452 1.234 2.351 1.9 2.718 5.384.817 7.735m87.119-19.238c-15.843 21.122-49.68 14.003-71.376 15.02 0 0-3.852.234-7.721.867 0 0 1.45-.617 3.335-1.334 15.226-5.301 22.43-6.335 31.685-11.086 17.427-8.869 34.654-28.274 38.24-48.463-6.637 19.422-26.75 36.11-45.077 42.895-12.557 4.635-35.238 9.136-35.238 9.136l-.917-.484c-15.442-7.518-15.91-40.977 12.157-51.78 12.291-4.735 24.048-2.134 37.323-5.302 14.175-3.367 30.568-14.004 37.238-27.874 7.471 22.19 16.46 56.932.35 78.405z"/></svg>
